images/social/facebook.svg

<svg xmlns="http://www.w3.org/2000/svg" width="300" height="300" viewBox="0 0 300 300"><defs><style>.a{fill:#fff;}</style></defs><title>facebook</title><path class="a" d="M15.74,0H284a16.71,16.71,0,0,1,16,15.79V284.3A16.81,16.81,0,0,1,284.74,300h-77.6c-.09-38.81.09-77.62-.09-116.42,13.07,0,26.13,0,39.2,0,1.7-15,4-29.95,5.73-45H207c.22-10.56,0-21.12.14-31.68.11-4.93,1.27-10.19,4.87-13.78,4.23-4,10.34-5,16-5,8.62,0,17.24,0,25.86,0,0-13.86-.07-27.72,0-41.57-10.58-1.23-21.24-1.3-31.87-1.8-15.86-.38-32.86,3.27-44.6,14.62-12.2,11.25-17,28.36-17.07,44.52,0,11.58,0,23.16,0,34.73-13.1-.11-26.2,0-39.31-.06.06,15,.13,30,0,44.95,13.11,0,26.23.06,39.35,0-.11,38.81,0,77.63-.05,116.45H15.61A16.81,16.81,0,0,1,0,284.63V16A16.71,16.71,0,0,1,15.74,0Z"/></svg>

<?xml version="1.0" encoding="UTF-8" ?>
<!DOCTYPE svg PUBLIC "-//W3C//DTD SVG 1.1//EN" "http://www.w3.org/Graphics/SVG/1.1/DTD/svg11.dtd">
<svg width="300pt" height="300pt" viewBox="0 0 300 300" version="1.1" xmlns="http://www.w3.org/2000/svg">
<g>
<path fill="#fff" opacity="1.00" d=" M 15.74 0.00 L 284.01 0.00 C 292.40 0.12 299.73 7.42 300.00 15.79 L 300.00 284.30 C 299.69 292.38 292.81 299.44 284.74 300.00 L 207.14 300.00 C 207.05 261.19 207.23 222.38 207.05 183.58 C 220.12 183.62 233.18 183.55 246.25 183.61 C 247.95 168.60 250.27 153.66 251.98 138.65 C 237.00 138.64 222.02 138.65 207.04 138.64 C 207.26 128.08 207.00 117.52 207.18 106.96 C 207.29 102.03 208.45 96.77 212.05 93.18 C 216.28 89.17 222.39 88.17 228.01 88.17 C 236.63 88.16 245.25 88.15 253.87 88.19 C 253.87 74.33 253.80 60.47 253.91 46.62 C 243.33 45.39 232.67 45.32 222.04 44.82 C 206.18 44.44 189.18 48.09 177.44 59.44 C 165.24 70.69 160.44 87.80 160.37 103.96 C 160.37 115.54 160.32 127.12 160.40 138.69 C 147.30 138.58 134.20 138.69 121.09 138.63 C 121.15 153.61 121.22 168.60 121.06 183.58 C 134.17 183.58 147.29 183.64 160.41 183.55 C 160.30 222.36 160.39 261.18 160.36 300.00 L 15.61 300.00 C 7.50 299.65 0.52 292.70 0.00 284.63 L 0.00 16.00 C 0.13 7.63 7.38 0.28 15.74 0.00 Z" />
</g>
</svg>
